X:9
T:No.19 Farrell O'Gara
C:reel
M:4/4
L:1/8
K:D
A,DDD A,DFA|BFAF EFGA|dBBA BdAF|
GEFD EFDB,|A,3B, DEFA|BFAF EFGA|
dBBA BAGF|GFEG FDD2:|fddd fdgd|
fdgf edBc|dBBA Bcde|ffgf efge|
fddd fdgd|fagf edBc|dBBA BAGF|GFEG FDD2:|
